img/truck.svg

<svg viewBox="0 0 100 56" xmlns="http://www.w3.org/2000/svg"><g fill="#e6e7e8" fill-rule="evenodd"><path d="m19.636 42.12c-1.309 1.745-2.096 3.881-2.096 6.236h-9.674l-7.866-1.991v-4.245h19.636"/><path d="m90.27 26.833l-5.555-16.667v-4.167h-17.408v36.12h-31.04c1.313 1.745 2.102 3.881 2.102 6.236h32.459c0-5.741 4.668-10.402 10.424-10.402 4.04 0 7.539 2.305 9.266 5.677.617 1.211 1.01 2.565 1.099 3.984.02.247.053.493.053.741h8.332v-17.355l-9.732-4.167m-18.05 0v-12.5h9.726l4.155 12.5h-13.881"/><path d="m27.962 40.725c-4.227 0-7.645 3.423-7.645 7.63 0 4.22 3.418 7.645 7.645 7.645 4.206 0 7.624-3.425 7.624-7.645 0-4.207-3.418-7.63-7.624-7.63m0 11.796c-2.313 0-4.188-1.86-4.188-4.166 0-2.293 1.875-4.168 4.188-4.168 2.286 0 4.161 1.875 4.161 4.168 0 2.306-1.875 4.166-4.161 4.166"/><path d="m81.25 40.725c-4.227 0-7.645 3.423-7.645 7.63 0 4.22 3.418 7.645 7.645 7.645 4.205 0 7.637-3.425 7.637-7.645 0-4.207-3.432-7.63-7.637-7.63m0 11.796c-2.305 0-4.168-1.86-4.168-4.166 0-2.293 1.863-4.168 4.168-4.168 2.297 0 4.166 1.875 4.166 4.168 0 2.306-1.869 4.166-4.166 4.166"/><path d="m0 0h63.66v39.17h-63.66v-39.17"/></g></svg>

<?xml version="1.0" encoding="UTF-8" standalone="no"?>
<svg width="100px" height="56px" viewBox="0 0 100 56" version="1.1" xmlns="http://www.w3.org/2000/svg" xmlns:xlink="http://www.w3.org/1999/xlink" xmlns:sketch="http://www.bohemiancoding.com/sketch/ns">
    <!-- Generator: Sketch 3.0.4 (8053) - http://www.bohemiancoding.com/sketch -->
    <title>truck</title>
    <desc>Created with Sketch.</desc>
    <defs></defs>
    <g id="Page-1" stroke="none" stroke-width="1" fill="none" fill-rule="evenodd" sketch:type="MSPage">
        <g id="truck" sketch:type="MSArtboardGroup" fill="#E6E7E8">
            <g id="Group" sketch:type="MSLayerGroup">
                <path d="M19.636,42.119 C18.327,43.864 17.54,46 17.54,48.355 L7.866,48.355 L0,46.364 L0,42.119 L19.636,42.119 Z" id="Fill-1" sketch:type="MSShapeGroup"></path>
                <path d="M90.267,26.833 L84.712,10.166 L84.712,5.999 L67.304,5.999 L67.304,42.119 L36.264,42.119 C37.577,43.864 38.366,46 38.366,48.355 L70.825,48.355 C70.825,42.614 75.493,37.953 81.249,37.953 C85.292,37.953 88.788,40.258 90.515,43.63 C91.132,44.841 91.522,46.195 91.614,47.614 C91.634,47.861 91.667,48.107 91.667,48.355 L99.999,48.355 L99.999,31 L90.267,26.833 L90.267,26.833 Z M72.22,26.833 L72.22,14.333 L81.946,14.333 L86.101,26.833 L72.22,26.833 L72.22,26.833 Z" id="Fill-2" sketch:type="MSShapeGroup"></path>
                <path d="M27.962,40.725 C23.735,40.725 20.317,44.148 20.317,48.355 C20.317,52.575 23.735,56 27.962,56 C32.168,56 35.586,52.575 35.586,48.355 C35.586,44.148 32.168,40.725 27.962,40.725 L27.962,40.725 Z M27.962,52.521 C25.649,52.521 23.774,50.661 23.774,48.355 C23.774,46.062 25.649,44.187 27.962,44.187 C30.248,44.187 32.123,46.062 32.123,48.355 C32.123,50.661 30.248,52.521 27.962,52.521 L27.962,52.521 Z" id="Fill-3" sketch:type="MSShapeGroup"></path>
                <path d="M81.249,40.725 C77.022,40.725 73.604,44.148 73.604,48.355 C73.604,52.575 77.022,56 81.249,56 C85.454,56 88.886,52.575 88.886,48.355 C88.886,44.148 85.454,40.725 81.249,40.725 L81.249,40.725 Z M81.249,52.521 C78.944,52.521 77.081,50.661 77.081,48.355 C77.081,46.062 78.944,44.187 81.249,44.187 C83.546,44.187 85.415,46.062 85.415,48.355 C85.415,50.661 83.546,52.521 81.249,52.521 L81.249,52.521 Z" id="Fill-4" sketch:type="MSShapeGroup"></path>
                <path d="M0,0 L63.664,0 L63.664,39.167 L0,39.167 L0,0 Z" id="Fill-5" sketch:type="MSShapeGroup"></path>
            </g>
        </g>
    </g>
</svg>
